public/main-frontend/img/the-guardian.svg

<svg width="172" height="57" viewBox="0 0 172 57" fill="none" xmlns="http://www.w3.org/2000/svg">
<g clip-path="url(#clip0_228_1006)">
<path d="M39.082 30.385L42.08 28.821V5.04H39.81L34.27 12.45H33.645L33.995 4.116H58.015L58.365 12.456H57.701L52.276 5.046H49.943V28.761L52.959 30.366V31.172H39.081V30.384L39.082 30.385ZM60.711 29.338V2.994L58.377 2.053V1.565L66.79 0H67.711V12.505L67.91 12.305C69.9195 10.5791 72.4762 9.62234 75.125 9.605C78.812 9.605 80.439 11.705 80.439 15.616V29.338L82.411 30.42V31.173H71.403V30.42L73.38 29.332V15.57C73.38 13.417 72.447 12.558 70.703 12.558C69.6478 12.5358 68.6174 12.8788 67.786 13.529V29.374L69.729 30.457V31.174H58.716V30.457L60.711 29.339V29.338ZM88.394 21.245C88.622 25.597 90.559 28.968 95.144 28.968C97.36 28.968 98.934 27.932 100.393 27.144V28.003C99.4176 29.2061 98.1826 30.1729 96.7806 30.831C95.3785 31.489 93.8457 31.8213 92.297 31.803C85.192 31.803 81.564 27.821 81.564 20.927C81.564 14.187 85.536 9.987 91.953 9.987C97.99 9.987 101.122 13.028 101.122 21.045V21.251L88.394 21.245ZM88.278 20.239L94.543 19.857C94.543 14.463 93.627 10.881 91.789 10.881C89.829 10.887 88.278 15.046 88.278 20.245V20.239ZM0 41.72C0 30.257 7.525 26.175 15.907 26.175C19.465 26.175 22.819 26.763 24.697 27.533L24.861 35.533H24.061L19.144 27.793C18.1563 27.3944 17.0921 27.2212 16.029 27.286C11.573 27.286 9.292 32.48 9.368 40.991C9.45 51.172 11.205 55.801 15.294 55.801C16.1319 55.8288 16.967 55.6887 17.75 55.389V44.484L15.05 42.937V42.007H28.092V42.984L25.432 44.484V55.247C22.2688 56.3774 18.9331 56.9486 15.574 56.935C6.05 56.935 0 52.483 0 41.72ZM26.879 36.374V35.709L35.629 34.15L36.591 34.233V51.666C36.591 53.766 37.594 54.413 39.274 54.413C39.8205 54.4204 40.3613 54.3023 40.8549 54.0677C41.3485 53.8332 41.7817 53.4884 42.121 53.06V37.42L39.717 36.368V35.686L48.467 34.126L49.347 34.209V54.207L51.71 55.207V55.842L43.13 56.9L42.249 56.818V54.188H42.009C40.2531 55.9206 37.9021 56.9178 35.436 56.976C31.23 56.976 29.306 54.471 29.306 50.671V37.42L26.879 36.374ZM81.867 34.115L82.591 34.198V40.668H82.789C83.728 35.962 85.793 34.198 88.319 34.198C88.686 34.18 89.052 34.236 89.398 34.362V40.914C88.8057 40.7882 88.2002 40.7351 87.595 40.756C85.9529 40.7129 84.3222 41.0404 82.824 41.714V54.472L84.819 55.589V56.466H73.444V55.596L75.492 54.472V37.055L73.088 36.331V35.743L81.868 34.114L81.867 34.115ZM103.875 34.656V27.85L101.472 27.003V26.468L110.327 24.827L111.167 24.95V54.177L113.611 55.071V55.824L104.861 57L104.179 56.918V54.512H103.98C103.236 55.3099 102.331 55.9418 101.326 56.3666C100.321 56.7913 99.2379 56.9993 98.147 56.977C93.376 56.977 89.894 53.3 89.894 45.801C89.894 37.878 93.942 33.985 100.072 33.985C101.374 33.9178 102.674 34.1479 103.875 34.656ZM103.875 53.378V35.879C103.544 35.5949 103.159 35.3811 102.743 35.2504C102.327 35.1198 101.889 35.0751 101.455 35.119C99.087 35.202 97.622 38.808 97.622 45.236C97.622 51.012 98.672 54.247 101.828 54.136C102.58 54.14 103.308 53.8698 103.875 53.376V53.378ZM123.206 34.115L123.965 34.198V54.47L125.965 55.587V56.464H114.591V55.594L116.632 54.47V37.379L114.188 36.408V35.732L123.206 34.114V34.115ZM124.005 28.633C123.939 30.736 122.207 32.393 120.121 32.351C119.445 32.3769 118.774 32.2189 118.18 31.8938C117.587 31.5688 117.092 31.0888 116.75 30.505C116.404 29.9193 116.222 29.2516 116.222 28.5715C116.222 27.8914 116.404 27.2237 116.75 26.638C117.093 26.0544 117.587 25.5746 118.181 25.2497C118.774 24.9248 119.445 24.767 120.121 24.793C122.238 24.766 123.977 26.475 124.005 28.61V28.633ZM149.548 54.472V37.19L147.145 36.342V35.507L155.895 33.867L156.776 33.948V36.536H157.015C159.087 34.7468 161.731 33.7579 164.469 33.748C168.279 33.748 169.958 35.566 169.958 39.63V54.435L172 55.612V56.465H160.608V55.595L162.65 54.471V39.996C162.65 37.773 161.687 36.884 159.885 36.884C158.803 36.854 157.743 37.1944 156.881 37.849V54.465L158.887 55.582V56.465H147.507V55.595L149.548 54.472ZM137.171 43.614V40.714C137.171 36.35 136.226 34.921 133.548 34.921C133.245 34.9286 132.943 34.956 132.644 35.003L127.879 41.514H127.208V35.515C129.782 34.6239 132.482 34.1512 135.205 34.115C141.038 34.115 144.415 35.745 144.415 40.667V54.784L146.504 55.337V55.889C145.179 56.5757 143.702 56.9176 142.21 56.883C139.335 56.883 137.958 55.93 137.328 54.343H137.124C135.905 56.007 134.172 56.96 131.454 56.96C127.989 56.96 125.621 54.778 125.621 51.007C125.621 47.355 127.867 45.373 132.434 44.497L137.171 43.614ZM137.171 53.378V44.643L135.712 44.761C133.426 44.961 132.603 46.431 132.603 49.684C132.603 53.214 133.77 54.131 135.357 54.131C135.698 54.162 136.041 54.1096 136.357 53.9784C136.673 53.8473 136.952 53.6412 137.171 53.378ZM63.318 43.614V40.714C63.318 36.35 62.373 34.921 59.696 34.921C59.3932 34.9286 59.0912 34.956 58.792 35.003L54.026 41.508H53.361V35.515C55.9328 34.6245 58.6307 34.1518 61.352 34.115C67.185 34.115 70.562 35.745 70.562 40.667V54.784L72.651 55.337V55.889C71.3262 56.5758 69.8498 56.9176 68.358 56.883C65.482 56.883 64.106 55.93 63.476 54.343H63.277C62.058 56.007 60.326 56.96 57.607 56.96C54.143 56.96 51.774 54.778 51.774 51.007C51.774 47.355 54.02 45.373 58.587 44.497L63.318 43.614ZM63.318 53.378V44.643L61.86 44.761C59.573 44.961 58.75 46.431 58.75 49.684C58.75 53.214 59.917 54.131 61.504 54.131C61.8448 54.162 62.1879 54.1096 62.504 53.9784C62.82 53.8473 63.0994 53.6412 63.318 53.378Z" fill="white"/>
</g>
<defs>
<clipPath id="clip0_228_1006">
<rect width="172" height="57" fill="white"/>
</clipPath>
</defs>
</svg>

<svg xmlns="http://www.w3.org/2000/svg" width="172" height="57" fill="none"><path fill="#1B202F" d="m39.082 30.385 2.998-1.564V5.04h-2.27l-5.54 7.41h-.625l.35-8.334h24.02l.35 8.34h-.664l-5.425-7.41h-2.333v23.715l3.016 1.605v.806H39.081v-.788Zm21.629-1.047V2.994l-2.334-.941v-.488L66.79 0h.921v12.505l.199-.2a11.186 11.186 0 0 1 7.215-2.7c3.687 0 5.314 2.1 5.314 6.011v13.722l1.972 1.082v.753H71.403v-.753l1.977-1.088V15.57c0-2.153-.933-3.012-2.677-3.012a4.579 4.579 0 0 0-2.917.971v15.845l1.943 1.083v.717H58.716v-.717l1.995-1.118Zm27.683-8.093c.228 4.352 2.165 7.723 6.75 7.723 2.216 0 3.79-1.036 5.249-1.824v.859a10.266 10.266 0 0 1-8.096 3.8c-7.105 0-10.733-3.982-10.733-10.876 0-6.74 3.972-10.94 10.389-10.94 6.037 0 9.169 3.041 9.169 11.058v.206l-12.728-.006Zm-.116-1.006 6.265-.382c0-5.394-.916-8.976-2.754-8.976-1.96.006-3.511 4.165-3.511 9.364v-.006ZM0 41.72c0-11.463 7.525-15.545 15.907-15.545 3.558 0 6.912.588 8.79 1.358l.164 8h-.8l-4.917-7.74a7.16 7.16 0 0 0-3.115-.507c-4.456 0-6.737 5.194-6.661 13.705.082 10.181 1.837 14.81 5.926 14.81a6.287 6.287 0 0 0 2.456-.412V44.484l-2.7-1.547v-.93h13.042v.977l-2.66 1.5v10.763a28.946 28.946 0 0 1-9.858 1.688C6.05 56.935 0 52.483 0 41.72Zm26.879-5.346v-.665l8.75-1.559.962.083v17.433c0 2.1 1.003 2.747 2.683 2.747a3.57 3.57 0 0 0 2.847-1.353V37.42l-2.404-1.052v-.682l8.75-1.56.88.083v19.998l2.363 1v.635L43.13 56.9l-.881-.082v-2.63h-.24a9.684 9.684 0 0 1-6.573 2.788c-4.206 0-6.13-2.505-6.13-6.305V37.42l-2.427-1.047Zm54.988-2.259.724.083v6.47h.198c.939-4.706 3.004-6.47 5.53-6.47.367-.018.733.038 1.079.164v6.552a7.44 7.44 0 0 0-1.803-.158 10.935 10.935 0 0 0-4.771.958v12.758l1.995 1.117v.877H73.444v-.87l2.048-1.124V37.055l-2.404-.724v-.588l8.78-1.629Zm22.008.541V27.85l-2.403-.847v-.535l8.855-1.641.84.123v29.227l2.444.894v.753L104.861 57l-.682-.082v-2.406h-.199a7.76 7.76 0 0 1-5.833 2.465c-4.771 0-8.253-3.677-8.253-11.176 0-7.923 4.048-11.816 10.178-11.816a8.618 8.618 0 0 1 3.803.67Zm0 18.722V35.879a3.217 3.217 0 0 0-2.42-.76c-2.368.083-3.833 3.689-3.833 10.117 0 5.776 1.05 9.011 4.206 8.9a3.092 3.092 0 0 0 2.047-.76Zm19.331-19.263.759.083V54.47l2 1.117v.877h-11.374v-.87l2.041-1.124V37.379l-2.444-.971v-.676l9.018-1.618Zm.799-5.482c-.066 2.103-1.798 3.76-3.884 3.718a3.742 3.742 0 0 1-3.371-1.846 3.805 3.805 0 0 1 0-3.867 3.742 3.742 0 0 1 3.371-1.845c2.117-.027 3.856 1.682 3.884 3.817v.023Zm25.543 25.839V37.19l-2.403-.848v-.835l8.75-1.64.881.081v2.588h.239a11.47 11.47 0 0 1 7.454-2.788c3.81 0 5.489 1.818 5.489 5.882v14.805L172 55.612v.853h-11.392v-.87l2.042-1.124V39.996c0-2.223-.963-3.112-2.765-3.112a4.75 4.75 0 0 0-3.004.965v16.616l2.006 1.117v.883h-11.38v-.87l2.041-1.124Zm-12.377-10.858v-2.9c0-4.364-.945-5.793-3.623-5.793a6.96 6.96 0 0 0-.904.082l-4.765 6.511h-.671v-5.999a25.476 25.476 0 0 1 7.997-1.4c5.833 0 9.21 1.63 9.21 6.552v14.117l2.089.553v.552a8.885 8.885 0 0 1-4.294.994c-2.875 0-4.252-.953-4.882-2.54h-.204c-1.219 1.664-2.952 2.617-5.67 2.617-3.465 0-5.833-2.182-5.833-5.953 0-3.652 2.246-5.634 6.813-6.51l4.737-.883Zm0 9.764v-8.735l-1.459.118c-2.286.2-3.109 1.67-3.109 4.923 0 3.53 1.167 4.447 2.754 4.447a2.11 2.11 0 0 0 1.814-.753Zm-73.853-9.764v-2.9c0-4.364-.945-5.793-3.622-5.793a6.935 6.935 0 0 0-.904.082l-4.766 6.505h-.665v-5.993a25.475 25.475 0 0 1 7.991-1.4c5.833 0 9.21 1.63 9.21 6.552v14.117l2.089.553v.552a8.88 8.88 0 0 1-4.293.994c-2.876 0-4.252-.953-4.882-2.54h-.199c-1.219 1.664-2.951 2.617-5.67 2.617-3.464 0-5.833-2.182-5.833-5.953 0-3.652 2.246-5.634 6.813-6.51l4.731-.883Zm0 9.764v-8.735l-1.458.118c-2.287.2-3.11 1.67-3.11 4.923 0 3.53 1.167 4.447 2.754 4.447a2.11 2.11 0 0 0 1.814-.753Z"/></svg>
